X:108 
T:Lass of Ballintra 1 (reel), The
F:file ID: cre.5/108lass_b1
B:CRE5.192i (CailÃÂÃÂÃÂÃÂ­n Bhaile an TrÃÂÃÂÃÂÃÂ¡ 1)
M:4/4
Q:180
R:reel
K:G
ge|d2Bd efge|dcBG AEEB|d2Bd eggb|agef g2ge|
dcBd efge|dcBG AEEB|d2Bd eggb|agef g2ge||
dg~g2 ea~a2|bgef gedB|dg~g2 ea~a2|bgef g2ge|
dg~g2 ea~a2|bgef gedB|G2BA Bcdg|egfa Hg4|]

%%%

